X:1
T: Miss Stevenson's Reel
C:R. Mackintosh
R:Reel
Q: 232
K:Bb
M:4/4
L:1/8
|:F|B2 dB fB dB|Gc ec gc ec|A1/2c1/2f af bg af|=e1/2f1/2g c3/2e1/2 fF FF|
B2 dB fB dB|Gc ec gc ec|A1/2c1/2f af bg af|=e1/2f1/2g c3/2e1/2 fF FE|
D1/2E1/2F BF GE eg|Fd DF EC ce|D1/2E1/2F BF GE eg|d1/2c1/2B FA BB, B,E|
D1/2E1/2F BF GE eg|Fd DF EC ce|DF Bb ac dg|fB Ae dB B:|
